src/images/platforms/fx.svg

<?xml version="1.0" encoding="UTF-8"?>
<!-- Generated by Pixelmator Pro 3.4.1 -->
<svg width="400" height="400" viewBox="0 0 400 400" xmlns="http://www.w3.org/2000/svg">
    <g id="f-logo-1">
        <g id="Layer1">
            <path id="Path" fill="#ffffff" stroke="none" d="M 400 200 C 400 310.45697 310.45694 400 200 400 C 89.543045 400 -0 310.45697 -0 200 C -0 89.54306 89.543045 0 200 0 C 310.45694 0 400 89.54306 400 200 Z"/>
            <linearGradient id="linearGradient1" x1="35.363636" y1="145.090909" x2="339.090909" y2="145.090909" gradientUnits="userSpaceOnUse">
                <stop offset="1e-05" stop-color="#1b75ba" stop-opacity="1"/>
                <stop offset="0.17" stop-color="#2967b2" stop-opacity="1"/>
                <stop offset="0.72" stop-color="#543d99" stop-opacity="1"/>
                <stop offset="1" stop-color="#652d8f" stop-opacity="1"/>
            </linearGradient>
            <path id="path1" fill="url(#linearGradient1)" stroke="none" d="M 338.636353 95.909088 C 304.818176 51.909088 260.727264 25.909088 191.72728 25.909088 C 109.909096 25.909088 35.363636 101.181824 35.363636 181.545456 C 35.363636 237.454559 67.090912 264.272705 102.090904 264.272705 C 129.893814 265.148621 155.60939 249.583939 167.72728 224.545456 C 168.16951 223.707687 168.145325 222.700424 167.663376 221.884842 C 167.181442 221.06929 166.310806 220.56221 165.363647 220.545456 L 118.181816 220.545456 C 116.309525 220.496155 114.817535 218.963852 114.818184 217.090897 L 114.818184 182.909103 C 114.817535 181.036148 116.309525 179.503845 118.181816 179.454544 L 181.818176 179.454544 C 184.390915 179.445633 186.712677 177.909714 187.727264 175.545456 C 215.545441 111.909088 264.818176 98.090912 293.090912 95.818176 C 307.607056 94.651642 322.21637 95.817932 336.363647 99.272705 C 337.266144 99.603973 338.278259 99.277039 338.816498 98.480438 C 339.354736 97.683868 339.280426 96.622894 338.636353 95.909088 Z"/>
        </g>
    </g>
    <g id="x-logo-2">
        <g id="g1">
            <linearGradient id="linearGradient2" x1="73.038164" y1="275.106532" x2="392.394819" y2="275.106532" gradientUnits="userSpaceOnUse" gradientTransform="matrix(0.836072 -0.548619 0.548619 0.836072 -112.750057 172.734729)">
                <stop offset="1e-05" stop-color="#d81c5c" stop-opacity="1"/>
                <stop offset="1" stop-color="#ed4036" stop-opacity="1"/>
            </linearGradient>
            <path id="path2" fill="url(#linearGradient2)" stroke="none" d="M 61.741951 305.684631 C 96.066559 349.861969 140.634644 375.089233 209.336365 374.919891 C 291.034424 374.226563 365.494629 298.464233 365.024689 217.953613 C 364.633789 161.959198 332.889709 135.098236 297.569916 135.485229 C 269.739258 134.841766 244.126038 150.604095 232.159195 175.738815 C 231.736221 176.59549 231.798355 177.612076 232.322495 178.410858 C 232.846649 179.209641 233.754501 179.671265 234.708755 179.624222 L 281.679535 179.373764 C 283.570953 179.364639 285.114685 180.884659 285.134888 182.775986 L 285.400482 217.063736 C 285.409546 217.975494 285.046143 218.851501 284.394287 219.489075 C 283.742432 220.126663 282.858612 220.470612 281.947266 220.441345 L 218.425095 220.880478 C 215.865585 220.898087 213.554199 222.41478 212.519287 224.755783 C 185.088669 288.667664 135.773926 302.795807 107.450043 305.373413 C 92.939285 306.603302 78.325226 305.49585 64.165573 302.093262 C 63.201771 301.738312 62.120163 302.087341 61.545639 302.93869 C 60.971092 303.790039 61.052128 304.923676 61.741951 305.684631 Z"/>
        </g>
    </g>
</svg>

<svg xmlns="http://www.w3.org/2000/svg" width="400" height="400"><path fill="#fff" d="M400 200c0 110.457-89.543 200-200 200S0 310.457 0 200 89.543 0 200 0s200 89.543 200 200"/><linearGradient id="a" x1="35.364" x2="339.091" y1="145.091" y2="145.091" gradientUnits="userSpaceOnUse"><stop offset="0" stop-color="#1b75ba"/><stop offset=".17" stop-color="#2967b2"/><stop offset=".72" stop-color="#543d99"/><stop offset="1" stop-color="#652d8f"/></linearGradient><path fill="url(#a)" d="M338.636 95.91c-33.818-44-77.909-70-146.909-70-81.818 0-156.363 75.272-156.363 155.635 0 55.91 31.727 82.728 66.727 82.728 27.803.876 53.518-14.69 65.636-39.728a2.727 2.727 0 0 0-2.363-4h-47.182a3.455 3.455 0 0 1-3.364-3.454v-34.182a3.455 3.455 0 0 1 3.364-3.454h63.636a6.46 6.46 0 0 0 5.91-3.91c27.817-63.636 77.09-77.454 105.363-79.727 14.516-1.166 29.125 0 43.273 3.455a2.09 2.09 0 0 0 2.272-3.364"/><linearGradient id="b" x1="73.038" x2="392.395" y1="275.107" y2="275.107" gradientTransform="rotate(-33.272 232.672 275.039)" gradientUnits="userSpaceOnUse"><stop offset="0" stop-color="#d81c5c"/><stop offset="1" stop-color="#ed4036"/></linearGradient><path fill="url(#b)" d="M61.742 305.685c34.325 44.177 78.893 69.404 147.594 69.235 81.698-.693 156.159-76.456 155.689-156.966-.391-55.995-32.135-82.856-67.455-82.469-27.83-.643-53.444 15.12-65.41 40.254a2.695 2.695 0 0 0 2.549 3.885l46.97-.25a3.44 3.44 0 0 1 3.456 3.402l.265 34.288a3.346 3.346 0 0 1-3.453 3.377l-63.522.44a6.51 6.51 0 0 0-5.906 3.875c-27.43 63.912-76.745 78.04-105.069 80.617a136 136 0 0 1-43.284-3.28 2.23 2.23 0 0 0-2.424 3.592"/></svg>
